X:1
T:Carnelian, LM
T:Carnelian, LM
T:Charles Beecher, 1855
T:Public Domain Courtesy of the Cyber Hymnal™
C:Charles Beecher, 1855
Z:Public Domain
Z:Courtesy of the Cyber Hymnal™
%%score ( 1 2 ) ( 3 4 )
L:1/8
Q:1/4=97
M:2/4
K:A
V:1 treble 
V:2 treble 
V:3 bass 
V:4 bass 
V:1
 [CE] | [CE]2 (A>E) | [DE]2 (B>E) | [CA]2 (A>B) | [EB]2 ([CA]>[DB]) | [Ec]2 ([DB]>[CA]) | %6
 [B,B]2 ([EB]>A) | [Ec]2 ([EB]>[^DA]) | [EB]2 ([A,C]>[CE]) | [CA]2 ([CE]>[EA]) | [Ac]2 (A>[Ac]) | %11
 [ce]2 ([Ac]>[CA]) | [EB]2 (E>A) | [Ee]2 ([CA]>[Ec]) | [Ee]2 ([EA]>[FB]) | [Ec]2 ([Ec]>[DB]) | %16
 [CA]2 |] %17
V:2
 x | x2 C2 | x2 D2 | x2 ^D2 | x4 | x4 | x/ E2 x3/2 | x4 | x4 | x4 | x2 A3/2 x/ | x4 | x2 C2 | x4 | %14
 x4 | x4 | x2 |] %17
V:3
 A, | A,2 A,2 | [G,B,]2 [G,B,]2 | [F,A,]2 [F,B,]2 | [E,G,]2 [A,,E,]2 | [A,,A,]2 [A,,E,]2 | %6
 [E,G,]2 [E,G,]2 | A,2 B,2 | [E,G,]2 z2 | z4 | z4 | z4 | z2 A,2 | A,2 A,2 | [A,C]2 A,2 | %15
 [E,A,]2 [E,G,]2 | [A,,A,]2 |] %17
V:4
 A, | A,2 A,2 | x4 | x4 | x4 | x4 | x4 | A,2 (G,>F,) | x4 | x4 | x4 | x4 | x2 A,2 | A,2 A,2 | %14
 x2 (C,>D,) | x4 | x2 |] %17

